X:0
T:Valentine's Day
F:http://www.vwml.org/record/CJS2/10/671
S:James Bishop of Priddy, Somerset
Z:transcribed by Alice Baillie
M:C
L:1/8
K:D
A2 | F F G2 A2 A A | B2 (AG) F2 (FA) | 
w:O Va-len-tine's day comes but once a_ year One
A A A A B A F D | E4 (FE) | D E (FG) (AB) c d | 
w:morn-ing ve-ry ear-ly in the spring A_ pre-tty fair_ maid_ came to
(eA) (cB) A2 d d | d c A F (cB) (GD) | D6 ||  
w:my_ bed-_side Swear-ing she would be my Val-_en-_tine
R:Minim line 2 bar 2 should likely be dotted

